static/img/kroki/c369860a6fb567a90038dd973c39668d.svg

<?xml version="1.0" encoding="us-ascii" standalone="no"?><svg xmlns="http://www.w3.org/2000/svg" xmlns:xlink="http://www.w3.org/1999/xlink" contentStyleType="text/css" height="252px" preserveAspectRatio="none" style="width:525px;height:252px;" version="1.1" viewBox="0 0 525 252" width="525px" zoomAndPan="magnify"><defs/><g><!--class azure_machine_learning_job--><g id="elem_azure_machine_learning_job"><rect codeLine="23" fill="#3D176E" height="39.7891" id="azure_machine_learning_job" rx="2.5" ry="2.5" style="stroke:#000D19;stroke-width:0.5;" width="281" x="122" y="206.58"/><ellipse cx="137" cy="226.4745" fill="#ADD1B2" rx="11" ry="11" style="stroke:#181818;stroke-width:1.0;"/><path d="M139.9688,232.1152 Q139.3906,232.412 138.75,232.5527 Q138.1094,232.7089 137.4063,232.7089 Q134.9063,232.7089 133.5781,231.0683 Q132.2656,229.412 132.2656,226.287 Q132.2656,223.162 133.5781,221.5058 Q134.9063,219.8495 137.4063,219.8495 Q138.1094,219.8495 138.75,220.0058 Q139.4063,220.162 139.9688,220.4589 L139.9688,223.1777 Q139.3438,222.5995 138.75,222.3339 Q138.1563,222.0527 137.5313,222.0527 Q136.1875,222.0527 135.5,223.1308 Q134.8125,224.1933 134.8125,226.287 Q134.8125,228.3808 135.5,229.4589 Q136.1875,230.5214 137.5313,230.5214 Q138.1563,230.5214 138.75,230.2558 Q139.3438,229.9745 139.9688,229.3964 L139.9688,232.1152 Z " fill="#000000"/><text fill="#D9B8FF" font-family="Helvetica" font-size="17" lengthAdjust="spacing" textLength="239" x="156" y="232.3598">azure_machine_learning_job</text></g><!--class azure_machine_learning_registry_component_container--><g id="elem_azure_machine_learning_registry_component_container"><rect codeLine="26" fill="#3D176E" height="39.7891" id="azure_machine_learning_registry_component_container" rx="2.5" ry="2.5" style="stroke:#000D19;stroke-width:0.5;" width="511" x="7" y="7"/><ellipse cx="22" cy="26.8945" fill="#ADD1B2" rx="11" ry="11" style="stroke:#181818;stroke-width:1.0;"/><path d="M24.9688,32.5352 Q24.3906,32.832 23.75,32.9727 Q23.1094,33.1289 22.4063,33.1289 Q19.9063,33.1289 18.5781,31.4883 Q17.2656,29.832 17.2656,26.707 Q17.2656,23.582 18.5781,21.9258 Q19.9063,20.2695 22.4063,20.2695 Q23.1094,20.2695 23.75,20.4258 Q24.4063,20.582 24.9688,20.8789 L24.9688,23.5977 Q24.3438,23.0195 23.75,22.7539 Q23.1563,22.4727 22.5313,22.4727 Q21.1875,22.4727 20.5,23.5508 Q19.8125,24.6133 19.8125,26.707 Q19.8125,28.8008 20.5,29.8789 Q21.1875,30.9414 22.5313,30.9414 Q23.1563,30.9414 23.75,30.6758 Q24.3438,30.3945 24.9688,29.8164 L24.9688,32.5352 Z " fill="#000000"/><text fill="#D9B8FF" font-family="Helvetica" font-size="17" lengthAdjust="spacing" textLength="469" x="41" y="32.7798">azure_machine_learning_registry_component_container</text></g><!--class azure_machine_learning_registry_component_version--><g id="elem_azure_machine_learning_registry_component_version"><rect codeLine="29" fill="#3D176E" height="39.7891" id="azure_machine_learning_registry_component_version" rx="2.5" ry="2.5" style="stroke:#000D19;stroke-width:0.5;" width="493" x="16" y="106.79"/><ellipse cx="31" cy="126.6845" fill="#ADD1B2" rx="11" ry="11" style="stroke:#181818;stroke-width:1.0;"/><path d="M33.9688,132.3252 Q33.3906,132.622 32.75,132.7627 Q32.1094,132.9189 31.4063,132.9189 Q28.9063,132.9189 27.5781,131.2783 Q26.2656,129.622 26.2656,126.497 Q26.2656,123.372 27.5781,121.7158 Q28.9063,120.0595 31.4063,120.0595 Q32.1094,120.0595 32.75,120.2158 Q33.4063,120.372 33.9688,120.6689 L33.9688,123.3877 Q33.3438,122.8095 32.75,122.5439 Q32.1563,122.2627 31.5313,122.2627 Q30.1875,122.2627 29.5,123.3408 Q28.8125,124.4033 28.8125,126.497 Q28.8125,128.5908 29.5,129.6689 Q30.1875,130.7314 31.5313,130.7314 Q32.1563,130.7314 32.75,130.4658 Q33.3438,130.1845 33.9688,129.6064 L33.9688,132.3252 Z " fill="#000000"/><text fill="#D9B8FF" font-family="Helvetica" font-size="17" lengthAdjust="spacing" textLength="451" x="50" y="132.5698">azure_machine_learning_registry_component_version</text></g><!--link azure_machine_learning_registry_component_container to azure_machine_learning_registry_component_version--><g id="link_azure_machine_learning_registry_component_container_azure_machine_learning_registry_component_version"><path codeLine="32" d="M262.5,47.22 C262.5,64.36 262.5,83.27 262.5,100.41 " fill="none" id="azure_machine_learning_registry_component_container-to-azure_machine_learning_registry_component_version" style="stroke:#1A83AF;stroke-width:2.0;"/><polygon fill="#1A83AF" points="262.5,106.41,266.5,97.41,262.5,101.41,258.5,97.41,262.5,106.41" style="stroke:#1A83AF;stroke-width:2.0;"/></g><!--link azure_machine_learning_registry_component_version to azure_machine_learning_job--><g id="link_azure_machine_learning_registry_component_version_azure_machine_learning_job"><path codeLine="33" d="M262.5,147.01 C262.5,164.15 262.5,183.06 262.5,200.2 " fill="none" id="azure_machine_learning_registry_component_version-to-azure_machine_learning_job" style="stroke:#1A83AF;stroke-width:2.0;"/><polygon fill="#1A83AF" points="262.5,206.2,266.5,197.2,262.5,201.2,258.5,197.2,262.5,206.2" style="stroke:#1A83AF;stroke-width:2.0;"/></g><!--SRC=[dPFHJy8m4CRVzrSquPbaa-ZWnMII47qXHdmpPhcjLrPPs-LQ863ytzr4JTa4XBVcxdVzlk_I5f8ZGrMv3LEeCYGRs8NK5H0ebX2PzTYKXbXF2123kDsS6ErE0bDGoEwnNA6JERI9vqBc2utMiYklTGVvOavcgVdkUaUWRTr2xJngN8ArYNCaiwL3pmmVPKCXscJxqjw0H_4DTZ137EaR2SEGHwCsSbBgQEvVOYQto29_QLFZi6Ep8_557NNP49x9Jj2V_a6FZy2vr7DsxTMUTfv88-tLPmLmisve0QNrPQn3GkCs5OuxgN0qv2B-4tuu10Tvipe6soLXgY0lfCQqH21TgwTl9cFlGV1nd2ASI-jea-P6LKRNBwe-QGUoYNNH-Ah-DjBetV0bglsNNfGC1ydajNzxlcvmljF_2DRR33u1]--></g></svg>

<svg xmlns="http://www.w3.org/2000/svg" width="525" height="252" viewBox="0 0 525 252"><rect width="281" height="39.789" x="122" y="206.58" fill="#3D176E" rx="2.5" ry="2.5" style="stroke:#000d19;stroke-width:.5"/><circle cx="137" cy="226.475" r="11" fill="#ADD1B2" style="stroke:#181818;stroke-width:1"/><path d="M139.969 232.115q-.578.297-1.219.438-.64.156-1.344.156-2.5 0-3.828-1.64-1.312-1.657-1.312-4.782t1.312-4.781q1.328-1.656 3.828-1.656.703 0 1.344.156.656.156 1.219.453v2.719q-.625-.578-1.219-.844-.594-.281-1.219-.281-1.344 0-2.031 1.078-.687 1.062-.687 3.156t.687 3.172q.688 1.062 2.031 1.062.625 0 1.219-.265.594-.281 1.219-.86z"/><text x="156" y="232.36" fill="#D9B8FF" font-family="Helvetica" font-size="17" textLength="239">azure_machine_learning_job</text><rect width="511" height="39.789" x="7" y="7" fill="#3D176E" rx="2.5" ry="2.5" style="stroke:#000d19;stroke-width:.5"/><circle cx="22" cy="26.895" r="11" fill="#ADD1B2" style="stroke:#181818;stroke-width:1"/><path d="M24.969 32.535q-.578.297-1.219.438-.64.156-1.344.156-2.5 0-3.828-1.64-1.312-1.657-1.312-4.782t1.312-4.781q1.328-1.656 3.828-1.656.703 0 1.344.156.656.156 1.219.453v2.719q-.625-.578-1.219-.844-.594-.281-1.219-.281-1.343 0-2.031 1.078-.687 1.062-.687 3.156t.687 3.172q.688 1.062 2.031 1.062.625 0 1.219-.265.594-.281 1.219-.86z"/><text x="41" y="32.78" fill="#D9B8FF" font-family="Helvetica" font-size="17" textLength="469">azure_machine_learning_registry_component_container</text><rect width="493" height="39.789" x="16" y="106.79" fill="#3D176E" rx="2.5" ry="2.5" style="stroke:#000d19;stroke-width:.5"/><circle cx="31" cy="126.684" r="11" fill="#ADD1B2" style="stroke:#181818;stroke-width:1"/><path d="M33.969 132.325q-.578.297-1.219.438-.64.156-1.344.156-2.5 0-3.828-1.64-1.312-1.657-1.312-4.782t1.312-4.781q1.328-1.656 3.828-1.656.703 0 1.344.156.656.156 1.219.453v2.719q-.625-.579-1.219-.844-.594-.281-1.219-.281-1.343 0-2.031 1.078-.687 1.062-.687 3.156t.687 3.172q.688 1.062 2.031 1.062.625 0 1.219-.265.594-.281 1.219-.86z"/><text x="50" y="132.57" fill="#D9B8FF" font-family="Helvetica" font-size="17" textLength="451">azure_machine_learning_registry_component_version</text><path fill="none" d="M262.5 47.22v53.19" style="stroke:#1a83af;stroke-width:2"/><path fill="#1A83AF" d="m262.5 106.41 4-9-4 4-4-4z" style="stroke:#1a83af;stroke-width:2"/><path fill="none" d="M262.5 147.01v53.19" style="stroke:#1a83af;stroke-width:2"/><path fill="#1A83AF" d="m262.5 206.2 4-9-4 4-4-4z" style="stroke:#1a83af;stroke-width:2"/></svg>
